img/landing-nalog/icons/icon-advantage-05.svg

<svg width="80" height="80" viewBox="0 0 80 80" fill="none" xmlns="http://www.w3.org/2000/svg">
<g clip-path="url(#clip0_247_1127)">
<path d="M59.1837 32.713C59.0143 32.3624 58.9416 31.9722 58.9737 31.5844L60.1004 17.9679C60.2271 16.4354 59.6596 14.9499 58.5434 13.8922C57.4275 12.8345 55.9123 12.3478 54.3901 12.5563C53.2184 12.717 52.0844 13.0994 51.0567 13.6758C50.9755 13.5645 50.8919 13.4547 50.8027 13.3481C48.6821 10.8181 44.8991 10.4847 42.3695 12.6043L33.206 20.2734V18.5578C33.206 18.4298 33.244 18.3066 33.3163 18.201L35.2168 15.4198C35.5814 14.8862 35.4444 14.158 34.9108 13.7934C34.3769 13.4285 33.6489 13.5658 33.2844 14.0994L31.3839 16.8805C31.0448 17.3767 30.8656 17.9566 30.8656 18.5578V22.2322L23.5729 28.3356V17.3138C23.5729 16.0523 23.9491 14.835 24.6609 13.7936L31.3541 3.99828C31.9036 3.19412 32.7334 2.65209 33.6906 2.47204C34.6478 2.29198 35.6176 2.49529 36.4219 3.04496C37.2261 3.59433 37.7681 4.42423 37.9482 5.38144C38.1282 6.3385 37.9249 7.30867 37.3754 8.11267L36.1473 9.91008C35.7827 10.4438 35.9199 11.1719 36.4533 11.5365C36.9866 11.9011 37.7151 11.764 38.0796 11.2305L39.3076 9.43311C40.2098 8.11282 40.5438 6.52027 40.2482 4.94879C39.9525 3.3773 39.0625 2.01473 37.7422 1.11259C36.4221 0.21045 34.8296 -0.1236 33.2578 0.172068C31.6863 0.467736 30.3239 1.3577 29.4217 2.67799L22.7285 12.4733C21.7499 13.9056 21.2326 15.5794 21.2326 17.314V30.2945L17.7229 33.2317C15.2005 35.3428 13.8485 38.561 14.1064 41.8402L14.8514 51.3119C14.8996 51.9251 15.412 52.3905 16.0168 52.3903C16.0475 52.3903 16.0786 52.3891 16.1098 52.3868C16.754 52.3362 17.2353 51.7726 17.1846 51.1286L16.4396 41.6569C16.241 39.1311 17.2823 36.6525 19.2251 35.0266L43.8722 14.3988C45.4131 13.1074 47.7176 13.3105 49.009 14.8514C50.3003 16.3925 50.0973 18.6968 48.5562 19.9882L35.7264 30.7401C34.9294 30.9328 34.1664 31.3161 33.5052 31.8914L27.2342 37.3498C26.7468 37.7742 26.6956 38.5133 27.1199 39.0007C27.5443 39.4881 28.2832 39.5392 28.7709 39.1151L35.0419 33.6567C36.1325 32.707 37.7238 32.6979 38.8255 33.635L48.31 41.7023C49.0519 42.3334 49.5036 43.2156 49.5819 44.1864C49.6604 45.1573 49.356 46.1005 48.7249 46.8422C48.2635 47.3846 47.6538 47.7746 46.9777 47.974L40.3419 42.3298C38.3517 40.6368 35.4764 40.6533 33.5054 42.3688L27.2344 47.8272C26.747 48.2516 26.6958 48.9907 27.12 49.4781C27.5444 49.9657 28.2833 50.0167 28.7711 49.5925L35.0421 44.1341C36.1327 43.1845 37.724 43.1752 38.8257 44.1124L48.3101 52.1797C49.052 52.8108 49.5037 53.693 49.5821 54.6638C49.6605 55.6347 49.3561 56.5779 48.725 57.3196C48.094 58.0616 47.2119 58.5132 46.2411 58.5916C45.2689 58.6697 44.3268 58.3655 43.5852 57.7345L37.7143 52.7408C37.2497 52.3456 36.5599 52.3735 36.1286 52.8046L34.3863 54.5469C33.9293 55.0041 33.9293 55.7449 34.3863 56.2019C34.8433 56.6587 35.5842 56.6587 36.0411 56.2019L37.0201 55.2228L42.0687 59.5171C43.161 60.4464 44.5192 60.9441 45.9378 60.9441C46.1008 60.9441 46.265 60.9374 46.4293 60.9242C48.0231 60.7956 49.4714 60.0538 50.5076 58.8358C51.5438 57.6177 52.0435 56.0691 51.9148 54.4752C51.7862 52.8812 51.0445 51.4328 49.8264 50.3966L48.9541 49.6547C49.5371 49.316 50.0642 48.8795 50.5076 48.3582C52.6464 45.8438 52.3409 42.058 49.8264 39.9191L45.6214 36.3423L48.1629 23.3709L50.0597 21.7813C51.2852 20.7543 52.0376 19.3114 52.178 17.7184C52.2351 17.0699 52.1863 16.4288 52.0412 15.8131C52.8559 15.3271 53.7648 15.0037 54.7083 14.8745C55.5243 14.7622 56.3358 15.0235 56.934 15.5903C57.532 16.1572 57.8361 16.9531 57.7683 17.7744L56.6416 31.3909C56.575 32.195 56.7257 33.0045 57.0771 33.7313L59.1608 38.0408C61.7862 43.471 61.875 49.741 59.4043 55.2434L58.0645 58.2273C57.7998 58.8169 58.0631 59.5095 58.6528 59.7741C58.8085 59.844 58.9712 59.8771 59.1314 59.8771C59.578 59.8771 60.0047 59.6199 60.1996 59.1859L61.5394 56.202C64.2942 50.0673 64.1951 43.0764 61.2679 37.022L59.1837 32.713ZM43.5768 34.6042L40.3416 31.8524C39.9345 31.5062 39.4902 31.2327 39.0245 31.0294L45.309 25.7629L43.5768 34.6042Z" fill="#007A65"/>
<path d="M57.5576 62.2126C56.9679 61.948 56.2755 62.2109 56.0107 62.8008L53.0138 69.4748C52.9461 69.6255 52.9111 69.7889 52.9111 69.9541V78.8298C52.9111 79.4762 53.4349 80 54.0813 80C54.7277 80 55.2515 79.4762 55.2515 78.8298V70.2048L58.1458 63.7594C58.4106 63.17 58.147 62.4774 57.5576 62.2126Z" fill="#007A65"/>
<path d="M50.7639 7.28233C51.4104 7.28233 51.9341 6.75855 51.9341 6.11214V1.17019C51.9341 0.523777 51.4104 0 50.7639 0C50.1175 0 49.5938 0.523777 49.5938 1.17019V6.11214C49.5938 6.7584 50.1177 7.28233 50.7639 7.28233Z" fill="#007A65"/>
<path d="M55.7591 8.44622C55.9395 8.5467 56.1347 8.59413 56.3275 8.59413C56.7383 8.59413 57.137 8.37741 57.351 7.99312L59.7556 3.67558C60.0699 3.11093 59.8671 2.3982 59.3026 2.08381C58.738 1.76942 58.0252 1.97226 57.7108 2.53676L55.3063 6.85429C54.9918 7.4191 55.1946 8.13167 55.7591 8.44622Z" fill="#007A65"/>
<path d="M65.7484 8.05923C65.4081 7.50987 64.6871 7.34042 64.1375 7.68056L59.936 10.2826C59.3866 10.6229 59.217 11.3442 59.5573 11.8936C59.7787 12.251 60.1615 12.4478 60.5533 12.4478C60.7636 12.4478 60.9764 12.3911 61.1683 12.2722L65.3698 9.67019C65.9193 9.33006 66.0889 8.60875 65.7484 8.05923Z" fill="#007A65"/>
<path d="M20.9855 64.0627C19.1502 61.7563 17.9783 58.9889 17.5963 56.0598C17.5127 55.4192 16.9262 54.9686 16.2846 55.0507C15.6438 55.1343 15.192 55.7216 15.2756 56.3624C15.7125 59.7136 17.0537 62.8803 19.1541 65.5198L23.9821 71.5875V78.7536C23.9821 79.4 24.5061 79.9238 25.1523 79.9238C25.7986 79.9238 26.3225 79.4 26.3225 78.7536V71.1787C26.3225 70.9141 26.2328 70.6571 26.068 70.4501L20.9855 64.0627Z" fill="#007A65"/>
</g>
<defs>
<clipPath id="clip0_247_1127">
<rect width="80" height="80" fill="white"/>
</clipPath>
</defs>
</svg>

<svg width="80" height="80" fill="none" xmlns="http://www.w3.org/2000/svg"><g clip-path="url(#clip0_247_1127)" fill="#007A65"><path d="M59.184 32.713c-.17-.35-.242-.74-.21-1.129L60.1 17.968a5.018 5.018 0 00-1.557-4.076 5.02 5.02 0 00-4.153-1.336 9.452 9.452 0 00-3.333 1.12 5.994 5.994 0 00-8.687-1.072l-9.164 7.67v-1.716c0-.128.038-.251.11-.357l1.9-2.781a1.17 1.17 0 00-1.932-1.32l-1.9 2.78a2.96 2.96 0 00-.518 1.678v3.674l-7.293 6.104V17.314a6.21 6.21 0 011.088-3.52l6.693-9.796a3.622 3.622 0 012.337-1.526 3.622 3.622 0 012.73.573 3.622 3.622 0 011.527 2.336 3.622 3.622 0 01-.573 2.732L36.147 9.91a1.17 1.17 0 001.933 1.32l1.228-1.797a5.947 5.947 0 00.94-4.484 5.948 5.948 0 00-2.506-3.836 5.947 5.947 0 00-4.484-.94 5.948 5.948 0 00-3.836 2.505l-6.694 9.795a8.546 8.546 0 00-1.495 4.841v12.98l-3.51 2.938a10.202 10.202 0 00-3.617 8.608l.745 9.472a1.17 1.17 0 102.334-.183l-.745-9.472a7.858 7.858 0 012.785-6.63l24.647-20.628a3.65 3.65 0 015.137.452 3.65 3.65 0 01-.453 5.137L35.726 30.74a5.262 5.262 0 00-2.22 1.151l-6.272 5.459a1.17 1.17 0 001.537 1.765l6.27-5.458a2.883 2.883 0 013.785-.022l9.484 8.067a3.622 3.622 0 011.272 2.484 3.621 3.621 0 01-.857 2.656 3.646 3.646 0 01-1.747 1.132l-6.636-5.644a5.21 5.21 0 00-6.837.039l-6.27 5.458a1.17 1.17 0 001.536 1.766l6.271-5.459a2.883 2.883 0 013.784-.022l9.484 8.068a3.623 3.623 0 011.272 2.484 3.622 3.622 0 01-.857 2.656 3.622 3.622 0 01-2.484 1.272 3.622 3.622 0 01-2.656-.858l-5.87-4.993a1.17 1.17 0 00-1.586.064l-1.743 1.742a1.17 1.17 0 001.655 1.655l.98-.98 5.048 4.295a5.94 5.94 0 004.36 1.407 5.948 5.948 0 004.079-2.088 5.947 5.947 0 001.407-4.36 5.948 5.948 0 00-2.089-4.08l-.872-.741a5.986 5.986 0 001.554-1.297 5.994 5.994 0 00-.682-8.439l-4.205-3.577 2.542-12.971 1.897-1.59a5.948 5.948 0 002.118-4.063 6 6 0 00-.137-1.905 7.096 7.096 0 012.667-.939 2.689 2.689 0 012.226.716 2.69 2.69 0 01.834 2.184l-1.126 13.617a4.524 4.524 0 00.435 2.34l2.084 4.31a20.314 20.314 0 01.243 17.202l-1.34 2.984a1.17 1.17 0 102.136.959l1.34-2.984a22.649 22.649 0 00-.272-19.18l-2.084-4.309zm-15.607 1.891l-3.235-2.752a5.309 5.309 0 00-1.317-.823l6.284-5.266-1.732 8.841zm13.981 27.609a1.17 1.17 0 00-1.547.588l-2.997 6.674a1.17 1.17 0 00-.103.48v8.875a1.17 1.17 0 102.34 0v-8.625l2.895-6.446a1.17 1.17 0 00-.588-1.546zM50.764 7.282a1.17 1.17 0 001.17-1.17V1.17a1.17 1.17 0 10-2.34 0v4.942c0 .646.524 1.17 1.17 1.17zm4.996 1.164a1.17 1.17 0 001.592-.453l2.404-4.317a1.17 1.17 0 00-2.045-1.14l-2.405 4.318a1.17 1.17 0 00.453 1.592zm9.988-.386a1.17 1.17 0 00-1.61-.38l-4.202 2.603a1.17 1.17 0 001.232 1.99L65.37 9.67c.55-.34.719-1.061.378-1.61zM20.985 64.063a16.22 16.22 0 01-3.389-8.003 1.171 1.171 0 00-2.32.302 18.56 18.56 0 003.878 9.158l4.828 6.068v7.166a1.17 1.17 0 102.34 0v-7.575c0-.265-.09-.522-.254-.729l-5.083-6.387z"/></g><defs><clipPath id="clip0_247_1127"><path fill="#fff" d="M0 0h80v80H0z"/></clipPath></defs></svg>
